X:1492
T:McFadden's Favorite
R:reel
N:"collected from McFadden"
B:"O'Neill's Dance Music of Ireland, 1492"
T: ro.ga .mic .paidin.
Z:transcribed by John B. Walsh, 8/22/96
M:C|
L:1/8
K:G
G2 (FG) ((3EFG) DB,|G,A,B,D EA, TA,2|DG{A}GD EGaf|gedc BdAF|
G2 BG EGDB,|G,A,B,D EA, TA,2|DG{A}GD EGef|gedc BG G2 Hx||
Tgfga bgag|gabg eaaf|gfga bgag|((3efg) dc BG G2|
Tgfga bgag|gabg eaaf|gabg gedc|Baag ((3efg) dB !D.C.!||


